sources/images/svg/photos.svg

<svg width="46" height="40" viewBox="0 0 46 40" xmlns="http://www.w3.org/2000/svg"><g id="photos" transform="translate(-477 -827) translate(477 828)" fill="#fff" fill-rule="evenodd"><path d="M38.31 38.99H6.94c-3.694 0-6.7-3.005-6.7-6.7V12.33c0-3.697 3.007-6.704 6.703-6.704h4.298l.894-2.38c.706-1.87 2.81-3.326 4.79-3.326h11.405c1.98 0 4.083 1.458 4.79 3.32l.893 2.384h4.297c3.695 0 6.702 3.007 6.702 6.703v19.96c0 3.697-3.007 6.704-6.703 6.704zM6.94 7.625c-2.592 0-4.702 2.11-4.702 4.703v19.96c0 2.594 2.11 4.704 4.703 4.704h31.37c2.593 0 4.703-2.11 4.703-4.702V12.33c0-2.594-2.11-4.704-4.703-4.704h-5.685l-1.38-3.68c-.407-1.075-1.77-2.023-2.917-2.023H16.922c-1.146 0-2.51.95-2.92 2.03l-1.377 3.674H6.94z" id="Fill-1"/><path d="M22.625 29.224c-3.813 0-6.916-3.103-6.916-6.916 0-3.814 3.1-6.916 6.914-6.916s6.916 3.102 6.916 6.916c0 3.813-3.102 6.916-6.915 6.916zm0-12.832c-3.262 0-5.916 2.653-5.916 5.916 0 3.262 2.652 5.916 5.914 5.916s5.916-2.654 5.916-5.916c0-3.263-2.653-5.916-5.915-5.916z" id="Fill-2"/></g></svg>

<?xml version="1.0" encoding="UTF-8" standalone="no"?>
<svg width="46px" height="40px" viewBox="0 0 46 40" version="1.1" xmlns="http://www.w3.org/2000/svg" xmlns:xlink="http://www.w3.org/1999/xlink" xmlns:sketch="http://www.bohemiancoding.com/sketch/ns">
    <!-- Generator: Sketch 3.0.4 (8053) - http://www.bohemiancoding.com/sketch -->
    <title>photos</title>
    <desc>Created with Sketch.</desc>
    <defs></defs>
    <g id="Page-1" stroke="none" stroke-width="1" fill="none" fill-rule="evenodd" sketch:type="MSPage">
        <g id="Landscape-Retina" sketch:type="MSArtboardGroup" transform="translate(-477.000000, -827.000000)" fill="#FFFFFF">
            <g id="photos" sketch:type="MSLayerGroup" transform="translate(477.000000, 828.000000)">
                <path d="M38.309,38.991 L6.941,38.991 C3.245,38.991 0.238,35.984 0.238,32.288 L0.238,12.327 C0.238,8.631 3.245,5.624 6.941,5.624 L11.238,5.624 L12.131,3.243 C12.838,1.378 14.942,-0.079 16.922,-0.079 L28.328,-0.079 C30.308,-0.079 32.412,1.378 33.117,3.24 L34.012,5.624 L38.309,5.624 C42.005,5.624 45.012,8.631 45.012,12.327 L45.012,32.288 C45.012,35.984 42.005,38.991 38.309,38.991 L38.309,38.991 Z M6.941,7.624 C4.348,7.624 2.238,9.734 2.238,12.327 L2.238,32.288 C2.238,34.881 4.348,36.991 6.941,36.991 L38.309,36.991 C40.902,36.991 43.012,34.881 43.012,32.288 L43.012,12.327 C43.012,9.734 40.902,7.624 38.309,7.624 L32.625,7.624 L31.246,3.945 C30.838,2.869 29.474,1.921 28.328,1.921 L16.922,1.921 C15.776,1.921 14.412,2.869 14.002,3.949 L12.625,7.624 L6.941,7.624 L6.941,7.624 Z" id="Fill-1" sketch:type="MSShapeGroup"></path>
                <path d="M22.625,29.224 C18.812,29.224 15.709,26.121 15.709,22.308 C15.709,18.494 18.812,15.392 22.625,15.392 C26.438,15.392 29.541,18.494 29.541,22.308 C29.541,26.121 26.438,29.224 22.625,29.224 L22.625,29.224 Z M22.625,16.392 C19.363,16.392 16.709,19.045 16.709,22.308 C16.709,25.57 19.363,28.224 22.625,28.224 C25.887,28.224 28.541,25.57 28.541,22.308 C28.541,19.045 25.887,16.392 22.625,16.392 L22.625,16.392 Z" id="Fill-2" sketch:type="MSShapeGroup"></path>
            </g>
        </g>
    </g>
</svg>
